Newaita-dark/apps/24/kvantum.svg

<svg height="24" viewBox="0 0 24 24" width="24" xmlns="http://www.w3.org/2000/svg" xmlns:xlink="http://www.w3.org/1999/xlink"><linearGradient id="a" gradientUnits="userSpaceOnUse" x1="11.90739" x2="11.90739" y1="21.02545225" y2="22.01773525002"><stop offset="0" stop-opacity=".27451"/><stop offset="1" stop-opacity="0"/></linearGradient><linearGradient id="b"><stop offset="0" stop-opacity=".313726"/><stop offset=".222222" stop-opacity=".27451"/><stop offset="1" stop-opacity="0"/></linearGradient><radialGradient id="c" cx="450.908936" cy="189.579361" gradientTransform="matrix(.00000013 -.0585994 -.105479 -.00000008 39.842197 47.696499)" gradientUnits="userSpaceOnUse" r="21.166656" xlink:href="#b"/><radialGradient id="d" cx="450.908936" cy="189.579361" gradientTransform="matrix(-.00000013 .0585994 .105479 .00000008 -15.90339 -5.645609)" gradientUnits="userSpaceOnUse" r="21.166656" xlink:href="#b"/><radialGradient id="e" cx="450.908936" cy="189.579361" gradientTransform="matrix(-.00000013 -.0585994 .105479 -.00000008 -15.90339 47.696499)" gradientUnits="userSpaceOnUse" r="21.166656" xlink:href="#b"/><radialGradient id="f" cx="450.908936" cy="189.579361" gradientTransform="matrix(.00000013 .0585994 -.105479 .00000008 39.842196 -5.64561)" gradientUnits="userSpaceOnUse" r="21.166656" xlink:href="#b"/><linearGradient id="g" gradientUnits="userSpaceOnUse" x1="11.907393" x2="11.907393" y1="2.17207850005" y2="21.02545025"><stop offset="0" stop-color="#7986cb"/><stop offset="1" stop-color="#5c6bc0"/></linearGradient><linearGradient id="h" gradientUnits="userSpaceOnUse" x1="11.907393" x2="11.907393" y1="2.17207850005" y2="21.02545025"><stop offset="0" stop-color="#4db6ac"/><stop offset="1" stop-color="#26a69a"/></linearGradient><linearGradient id="i" gradientUnits="userSpaceOnUse" x1="11.907393" x2="11.907393" y1="2.17207850005" y2="21.02545025"><stop offset="0" stop-color="#ffb74d"/><stop offset="1" stop-color="#ffa726"/></linearGradient><linearGradient id="j" gradientUnits="userSpaceOnUse" x1="11.90736" x2="11.90736" y1="21.02539814717" y2="2.17207777507"><stop offset="0" stop-color="#bdbdbd"/><stop offset="1" stop-color="#e0e0e0"/></linearGradient><path d="m3.339844 2.199219h17.136718c.609376 0 1.105469.496093 1.105469 1.105469v16.585937c0 .613281-.496093 1.105469-1.105469 1.105469h-17.136718c-.613282 0-1.105469-.492188-1.105469-1.105469v-16.585937c0-.609376.492187-1.105469 1.105469-1.105469zm0 0" fill="#7986cb" fill-opacity=".716129"/><path d="m3.84375 21.027344h16.25v.992187h-16.25zm0 0" fill="url(#a)"/><path d="m20.09375 21.027344h1.984375v-.996094h-1.984375zm0 0" fill="url(#c)"/><path d="m3.84375 21.027344h-1.984375v.992187h1.984375zm0 0" fill="url(#d)"/><path d="m3.84375 21.027344h-1.984375v-.996094h1.984375zm0 0" fill="url(#e)"/><path d="m20.09375 21.027344h1.984375v.992187h-1.984375zm0 0" fill="url(#f)"/><path d="m3.339844 2.199219c-.613282 0-1.105469.496093-1.105469 1.105469v16.585937c0 .613281.492187 1.105469 1.105469 1.105469h17.136718c.613282 0 1.105469-.492188 1.105469-1.105469v-16.585937c0-.609376-.492187-1.105469-1.105469-1.105469zm0 0" fill="url(#g)"/><path d="m17.828125 2.199219-15.59375 13.648437v4.042969c0 .613281.492187 1.105469 1.105469 1.105469h17.136718c.613282 0 1.105469-.492188 1.105469-1.105469v-16.585937c0-.609376-.492187-1.105469-1.105469-1.105469zm0 0" fill="url(#h)"/><path d="m21.582031 6.375-15.597656 14.621094h14.492187c.613282 0 1.105469-.492188 1.105469-1.105469zm0 0" fill="url(#i)"/><path d="m8.421875 4.886719c-.410156.003906-.742187.34375-.738281.757812v5.375c-.003906.0625-.003906.121094 0 .179688v4.367187c0 .269532.140625.523438.375.65625.230468.136719.519531.136719.753906 0 .230469-.132812.375-.386718.371094-.65625v-4.195312l.484375-.59375 3.058593 6.117187c.121094.246094.371094.40625.648438.414063.277344.007812.535156-.136719.671875-.375l3.96875-6.949219c.136719-.230469.136719-.519531.003906-.753906-.136719-.234375-.386719-.375-.65625-.375-.269531.003906-.519531.152343-.648437.386719l-3.273438 5.730468-2.734375-5.464844 2.773438-3.386718c.1875-.226563.230469-.542969.101562-.808594-.128906-.265625-.402343-.433594-.699219-.425781-.21875.007812-.425781.113281-.5625.285156l-3.136718 3.832031v-3.359375c.003906-.203125-.078125-.398437-.21875-.539062-.144532-.144531-.339844-.222657-.542969-.21875zm0 0" fill="url(#j)"/><path d="m8.421875 4.886719c-.410156.003906-.742187.34375-.738281.757812v.25c-.003906-.414062.328125-.753906.738281-.761719.203125 0 .398437.078126.542969.21875.140625.144532.222656.339844.21875.542969v-.25c.003906-.203125-.078125-.398437-.21875-.539062-.144532-.144531-.339844-.222657-.542969-.21875zm4.460937 0c-.21875.007812-.425781.113281-.5625.285156l-3.136718 3.832031v.25l3.136718-3.835937c.136719-.171875.34375-.273438.5625-.28125.375-.011719.699219.257812.761719.625.035157-.21875-.027343-.445313-.171875-.617188-.148437-.167969-.363281-.261719-.589844-.257812zm4.488282 3.96875c-.273438 0-.523438.148437-.65625.386719l-3.273438 5.730468-2.613281-5.222656-.121094.144531.078125.15625.042969-.054687 2.613281 5.226562 3.273438-5.730468c.132812-.238282.382812-.386719.65625-.386719.367187 0 .675781.265625.738281.625.035156-.214844-.023437-.4375-.167969-.605469-.140625-.167969-.347656-.269531-.570312-.269531zm-9.6875 2.164062c-.003906.0625-.003906.121094 0 .179688zm0 0" fill="#fff" fill-opacity=".716129"/><path d="m13.585938 5.921875c-.027344.0625-.0625.121094-.105469.171875l-2.773438 3.386719.191407.386719 2.582031-3.152344c.183593-.222656.226562-.53125.105469-.792969zm4.464843 3.96875c-.011719.023437-.023437.046875-.035156.070313l-3.96875 6.945312c-.136719.238281-.394531.382812-.671875.375s-.527344-.164062-.648438-.410156l-3.058593-6.117188-.484375.589844v.621094l.484375-.59375 3.058593 6.117187c.121094.25.371094.40625.648438.414063.277344.007812.535156-.136719.671875-.375l3.96875-6.949219c.125-.207031.136719-.464844.035156-.6875zm-10.367187 1.726563c-.003906.058593-.003906.117187 0 .175781zm0 3.925781v.621093c0 .269532.140625.519532.375.652344.230468.136719.519531.136719.753906 0 .230469-.132812.375-.382812.371094-.652344v-.621093c.003906.269531-.140625.519531-.371094.65625-.234375.132812-.523438.132812-.753906 0-.234375-.136719-.375-.386719-.375-.65625zm0 0" fill-opacity=".235294"/><path d="m678.990313 393.978146c-33.06771.31493-59.836808 27.71389-59.521878 61.096531v433.344467c-.31493 5.038889-.31493 9.762848 0 14.486806v352.09238c0 21.730209 11.337501 42.200697 30.233335 52.908336 18.580904 11.02257 41.885766 11.02257 60.781601 0 18.580903-10.707639 30.233335-31.178127 29.918404-52.908336v-338.235435l39.051391-47.869447 246.590638 493.181276c9.762848 19.840626 29.918404 32.75278 52.278475 33.382641s43.145488-11.02257 54.168058-30.233335l319.969462-560.261488c11.02257-18.580903 11.02257-41.885766.31493-60.7816-11.02257-18.895834-31.178126-30.233335-52.908336-30.233335-21.730209.314931-41.885766 12.282292-52.278475 31.178127l-263.911819 462.003149-220.451401-440.58787 223.600706-273.044807c15.116668-18.265973 18.580904-43.775349 8.188195-65.190628s-32.437849-34.957293-56.372572-34.327432c-17.636112.629861-34.327433 9.132986-45.350003 22.989931l-252.889249 308.946892v-270.840292c.314931-16.37639-6.298611-32.122919-17.636112-43.460419-11.652431-11.652431-27.39896-17.951043-43.77535-17.636112zm0 0" fill="none" stroke="#212121" stroke-linecap="round" stroke-linejoin="round" stroke-width="11.338583" transform="scale(.0124035)"/><path d="m3.339844 2.199219c-.613282 0-1.105469.496093-1.105469 1.105469v.222656c0-.613282.492187-1.105469 1.105469-1.105469h17.136718c.613282 0 1.105469.492187 1.105469 1.105469v-.222656c0-.609376-.492187-1.105469-1.105469-1.105469zm0 0" fill="#fff" fill-opacity=".392157"/><path d="m3.339844 21.027344c-.613282 0-1.105469-.496094-1.105469-1.109375v-.308594c0 .613281.492187 1.105469 1.105469 1.105469h17.136718c.613282 0 1.105469-.492188 1.105469-1.105469v.308594c0 .613281-.492187 1.109375-1.105469 1.109375zm0 0" fill-opacity=".235294"/><path d="m68.826761-168.671091h370.381297c11.665552 0 21.164645 9.499093 21.164645 21.164646v359.798974c0 11.748878-9.499093 21.247971-21.164645 21.247971h-370.381297c-11.748878 0-21.164646-9.499093-21.164646-21.247971v-359.798974c0-11.665553 9.415768-21.164646 21.164646-21.164646zm0 0" fill="none" stroke="#212121" stroke-linecap="round" stroke-linejoin="round" stroke-width="3" transform="matrix(.0468795 0 0 .0468795 0 10.079087)"/></svg>

<?xml version="1.0" encoding="UTF-8"?>
<svg xmlns="http://www.w3.org/2000/svg" xmlns:xlink="http://www.w3.org/1999/xlink" width="24px" height="24px" viewBox="0 0 24 24" version="1.1">
<defs>
<linearGradient id="linear0" gradientUnits="userSpaceOnUse" x1="254" y1="233.5" x2="254" y2="254.666672" gradientTransform="matrix(0.0468795,0,0,0.0468795,-0.0000028613,10.079089)">
<stop offset="0" style="stop-color:rgb(0%,0%,0%);stop-opacity:0.27451;"/>
<stop offset="1" style="stop-color:rgb(0%,0%,0%);stop-opacity:0;"/>
</linearGradient>
<radialGradient id="radial0" gradientUnits="userSpaceOnUse" cx="450.908936" cy="189.579361" fx="450.908936" fy="189.579361" r="21.166656" gradientTransform="matrix(0.000000130628,-0.0585994,-0.105479,-0.0000000761539,39.842197,47.696499)">
<stop offset="0" style="stop-color:rgb(0%,0%,0%);stop-opacity:0.313726;"/>
<stop offset="0.222222" style="stop-color:rgb(0%,0%,0%);stop-opacity:0.27451;"/>
<stop offset="1" style="stop-color:rgb(0%,0%,0%);stop-opacity:0;"/>
</radialGradient>
<radialGradient id="radial1" gradientUnits="userSpaceOnUse" cx="450.908936" cy="189.579361" fx="450.908936" fy="189.579361" r="21.166656" gradientTransform="matrix(-0.000000130628,0.0585994,0.105479,0.0000000761539,-15.90339,-5.645609)">
<stop offset="0" style="stop-color:rgb(0%,0%,0%);stop-opacity:0.313726;"/>
<stop offset="0.222222" style="stop-color:rgb(0%,0%,0%);stop-opacity:0.27451;"/>
<stop offset="1" style="stop-color:rgb(0%,0%,0%);stop-opacity:0;"/>
</radialGradient>
<radialGradient id="radial2" gradientUnits="userSpaceOnUse" cx="450.908936" cy="189.579361" fx="450.908936" fy="189.579361" r="21.166656" gradientTransform="matrix(-0.000000130628,-0.0585994,0.105479,-0.0000000761539,-15.90339,47.696499)">
<stop offset="0" style="stop-color:rgb(0%,0%,0%);stop-opacity:0.313726;"/>
<stop offset="0.222222" style="stop-color:rgb(0%,0%,0%);stop-opacity:0.27451;"/>
<stop offset="1" style="stop-color:rgb(0%,0%,0%);stop-opacity:0;"/>
</radialGradient>
<radialGradient id="radial3" gradientUnits="userSpaceOnUse" cx="450.908936" cy="189.579361" fx="450.908936" fy="189.579361" r="21.166656" gradientTransform="matrix(0.000000130628,0.0585994,-0.105479,0.0000000761539,39.842196,-5.64561)">
<stop offset="0" style="stop-color:rgb(0%,0%,0%);stop-opacity:0.313726;"/>
<stop offset="0.222222" style="stop-color:rgb(0%,0%,0%);stop-opacity:0.27451;"/>
<stop offset="1" style="stop-color:rgb(0%,0%,0%);stop-opacity:0;"/>
</radialGradient>
<linearGradient id="linear1" gradientUnits="userSpaceOnUse" x1="254" y1="-168.666656" x2="254" y2="233.5" gradientTransform="matrix(0.0468795,0,0,0.0468795,0,10.079087)">
<stop offset="0" style="stop-color:rgb(47.450981%,52.549022%,79.607844%);stop-opacity:1;"/>
<stop offset="1" style="stop-color:rgb(36.078432%,41.960785%,75.294119%);stop-opacity:1;"/>
</linearGradient>
<linearGradient id="linear2" gradientUnits="userSpaceOnUse" x1="254" y1="-168.666656" x2="254" y2="233.5" gradientTransform="matrix(0.0468795,0,0,0.0468795,0,10.079087)">
<stop offset="0" style="stop-color:rgb(30.19608%,71.372551%,67.450982%);stop-opacity:1;"/>
<stop offset="1" style="stop-color:rgb(14.901961%,65.098041%,60.392159%);stop-opacity:1;"/>
</linearGradient>
<linearGradient id="linear3" gradientUnits="userSpaceOnUse" x1="254" y1="-168.666656" x2="254" y2="233.5" gradientTransform="matrix(0.0468795,0,0,0.0468795,0,10.079087)">
<stop offset="0" style="stop-color:rgb(100%,71.764708%,30.19608%);stop-opacity:1;"/>
<stop offset="1" style="stop-color:rgb(100%,65.490198%,14.901961%);stop-opacity:1;"/>
</linearGradient>
<linearGradient id="linear4" gradientUnits="userSpaceOnUse" x1="960" y1="1695.118164" x2="960" y2="175.118134" gradientTransform="matrix(0.0124035,0,0,0.0124035,0,0.00000000000000141)">
<stop offset="0" style="stop-color:rgb(74.117649%,74.117649%,74.117649%);stop-opacity:1;"/>
<stop offset="1" style="stop-color:rgb(87.843138%,87.843138%,87.843138%);stop-opacity:1;"/>
</linearGradient>
</defs>
<g id="surface1">
<path style=" stroke:none;fill-rule:nonzero;fill:rgb(47.450981%,52.549022%,79.607844%);fill-opacity:0.716129;" d="M 3.339844 2.199219 L 20.476562 2.199219 C 21.085938 2.199219 21.582031 2.695312 21.582031 3.304688 L 21.582031 19.890625 C 21.582031 20.503906 21.085938 20.996094 20.476562 20.996094 L 3.339844 20.996094 C 2.726562 20.996094 2.234375 20.503906 2.234375 19.890625 L 2.234375 3.304688 C 2.234375 2.695312 2.726562 2.199219 3.339844 2.199219 Z M 3.339844 2.199219 "/>
<path style=" stroke:none;fill-rule:nonzero;fill:url(#linear0);" d="M 3.84375 21.027344 L 20.09375 21.027344 L 20.09375 22.019531 L 3.84375 22.019531 Z M 3.84375 21.027344 "/>
<path style=" stroke:none;fill-rule:nonzero;fill:url(#radial0);" d="M 20.09375 21.027344 L 22.078125 21.027344 L 22.078125 20.03125 L 20.09375 20.03125 Z M 20.09375 21.027344 "/>
<path style=" stroke:none;fill-rule:nonzero;fill:url(#radial1);" d="M 3.84375 21.027344 L 1.859375 21.027344 L 1.859375 22.019531 L 3.84375 22.019531 Z M 3.84375 21.027344 "/>
<path style=" stroke:none;fill-rule:nonzero;fill:url(#radial2);" d="M 3.84375 21.027344 L 1.859375 21.027344 L 1.859375 20.03125 L 3.84375 20.03125 Z M 3.84375 21.027344 "/>
<path style=" stroke:none;fill-rule:nonzero;fill:url(#radial3);" d="M 20.09375 21.027344 L 22.078125 21.027344 L 22.078125 22.019531 L 20.09375 22.019531 Z M 20.09375 21.027344 "/>
<path style=" stroke:none;fill-rule:nonzero;fill:url(#linear1);" d="M 3.339844 2.199219 C 2.726562 2.199219 2.234375 2.695312 2.234375 3.304688 L 2.234375 19.890625 C 2.234375 20.503906 2.726562 20.996094 3.339844 20.996094 L 20.476562 20.996094 C 21.089844 20.996094 21.582031 20.503906 21.582031 19.890625 L 21.582031 3.304688 C 21.582031 2.695312 21.089844 2.199219 20.476562 2.199219 Z M 3.339844 2.199219 "/>
<path style=" stroke:none;fill-rule:nonzero;fill:url(#linear2);" d="M 17.828125 2.199219 L 2.234375 15.847656 L 2.234375 19.890625 C 2.234375 20.503906 2.726562 20.996094 3.339844 20.996094 L 20.476562 20.996094 C 21.089844 20.996094 21.582031 20.503906 21.582031 19.890625 L 21.582031 3.304688 C 21.582031 2.695312 21.089844 2.199219 20.476562 2.199219 Z M 17.828125 2.199219 "/>
<path style=" stroke:none;fill-rule:nonzero;fill:url(#linear3);" d="M 21.582031 6.375 L 5.984375 20.996094 L 20.476562 20.996094 C 21.089844 20.996094 21.582031 20.503906 21.582031 19.890625 Z M 21.582031 6.375 "/>
<path style=" stroke:none;fill-rule:nonzero;fill:url(#linear4);" d="M 8.421875 4.886719 C 8.011719 4.890625 7.679688 5.230469 7.683594 5.644531 L 7.683594 11.019531 C 7.679688 11.082031 7.679688 11.140625 7.683594 11.199219 L 7.683594 15.566406 C 7.683594 15.835938 7.824219 16.089844 8.058594 16.222656 C 8.289062 16.359375 8.578125 16.359375 8.8125 16.222656 C 9.042969 16.089844 9.1875 15.835938 9.183594 15.566406 L 9.183594 11.371094 L 9.667969 10.777344 L 12.726562 16.894531 C 12.847656 17.140625 13.097656 17.300781 13.375 17.308594 C 13.652344 17.316406 13.910156 17.171875 14.046875 16.933594 L 18.015625 9.984375 C 18.152344 9.753906 18.152344 9.464844 18.019531 9.230469 C 17.882812 8.996094 17.632812 8.855469 17.363281 8.855469 C 17.09375 8.859375 16.84375 9.007812 16.714844 9.242188 L 13.441406 14.972656 L 10.707031 9.507812 L 13.480469 6.121094 C 13.667969 5.894531 13.710938 5.578125 13.582031 5.3125 C 13.453125 5.046875 13.179688 4.878906 12.882812 4.886719 C 12.664062 4.894531 12.457031 5 12.320312 5.171875 L 9.183594 9.003906 L 9.183594 5.644531 C 9.1875 5.441406 9.105469 5.246094 8.964844 5.105469 C 8.820312 4.960938 8.625 4.882812 8.421875 4.886719 Z M 8.421875 4.886719 "/>
<path style=" stroke:none;fill-rule:nonzero;fill:rgb(100%,100%,100%);fill-opacity:0.716129;" d="M 8.421875 4.886719 C 8.011719 4.890625 7.679688 5.230469 7.683594 5.644531 L 7.683594 5.894531 C 7.679688 5.480469 8.011719 5.140625 8.421875 5.132812 C 8.625 5.132812 8.820312 5.210938 8.964844 5.351562 C 9.105469 5.496094 9.1875 5.691406 9.183594 5.894531 L 9.183594 5.644531 C 9.1875 5.441406 9.105469 5.246094 8.964844 5.105469 C 8.820312 4.960938 8.625 4.882812 8.421875 4.886719 Z M 12.882812 4.886719 C 12.664062 4.894531 12.457031 5 12.320312 5.171875 L 9.183594 9.003906 L 9.183594 9.253906 L 12.320312 5.417969 C 12.457031 5.246094 12.664062 5.144531 12.882812 5.136719 C 13.257812 5.125 13.582031 5.394531 13.644531 5.761719 C 13.679688 5.542969 13.617188 5.316406 13.472656 5.144531 C 13.324219 4.976562 13.109375 4.882812 12.882812 4.886719 Z M 17.371094 8.855469 C 17.097656 8.855469 16.847656 9.003906 16.714844 9.242188 L 13.441406 14.972656 L 10.828125 9.75 L 10.707031 9.894531 L 10.785156 10.050781 L 10.828125 9.996094 L 13.441406 15.222656 L 16.714844 9.492188 C 16.847656 9.253906 17.097656 9.105469 17.371094 9.105469 C 17.738281 9.105469 18.046875 9.371094 18.109375 9.730469 C 18.144531 9.515625 18.085938 9.292969 17.941406 9.125 C 17.800781 8.957031 17.59375 8.855469 17.371094 8.855469 Z M 7.683594 11.019531 C 7.679688 11.082031 7.679688 11.140625 7.683594 11.199219 Z M 7.683594 11.019531 "/>
<path style=" stroke:none;fill-rule:nonzero;fill:rgb(0%,0%,0%);fill-opacity:0.235294;" d="M 13.585938 5.921875 C 13.558594 5.984375 13.523438 6.042969 13.480469 6.09375 L 10.707031 9.480469 L 10.898438 9.867188 L 13.480469 6.714844 C 13.664062 6.492188 13.707031 6.183594 13.585938 5.921875 Z M 18.050781 9.890625 C 18.039062 9.914062 18.027344 9.9375 18.015625 9.960938 L 14.046875 16.90625 C 13.910156 17.144531 13.652344 17.289062 13.375 17.28125 C 13.097656 17.273438 12.847656 17.117188 12.726562 16.871094 L 9.667969 10.753906 L 9.183594 11.34375 L 9.183594 11.964844 L 9.667969 11.371094 L 12.726562 17.488281 C 12.847656 17.738281 13.097656 17.894531 13.375 17.902344 C 13.652344 17.910156 13.910156 17.765625 14.046875 17.527344 L 18.015625 10.578125 C 18.140625 10.371094 18.152344 10.113281 18.050781 9.890625 Z M 7.683594 11.617188 C 7.679688 11.675781 7.679688 11.734375 7.683594 11.792969 Z M 7.683594 15.542969 L 7.683594 16.164062 C 7.683594 16.433594 7.824219 16.683594 8.058594 16.816406 C 8.289062 16.953125 8.578125 16.953125 8.8125 16.816406 C 9.042969 16.683594 9.1875 16.433594 9.183594 16.164062 L 9.183594 15.542969 C 9.1875 15.8125 9.042969 16.0625 8.8125 16.199219 C 8.578125 16.332031 8.289062 16.332031 8.058594 16.199219 C 7.824219 16.0625 7.683594 15.8125 7.683594 15.542969 Z M 7.683594 15.542969 "/>
<path style="fill:none;stroke-width:11.338583;stroke-linecap:round;stroke-linejoin:round;stroke:rgb(12.941177%,12.941177%,12.941177%);stroke-opacity:1;stroke-miterlimit:4;" d="M 678.990313 393.978146 C 645.922603 394.293076 619.153505 421.692036 619.468435 455.074677 L 619.468435 888.419144 C 619.153505 893.458033 619.153505 898.181992 619.468435 902.90595 L 619.468435 1254.99833 C 619.468435 1276.728539 630.805936 1297.199027 649.70177 1307.906666 C 668.282674 1318.929236 691.587536 1318.929236 710.483371 1307.906666 C 729.064274 1297.199027 740.716706 1276.728539 740.401775 1254.99833 L 740.401775 916.762895 L 779.453166 868.893448 L 1026.043804 1362.074724 C 1035.806652 1381.91535 1055.962208 1394.827504 1078.322279 1395.457365 C 1100.68235 1396.087226 1121.467767 1384.434795 1132.490337 1365.22403 L 1452.459799 804.962542 C 1463.482369 786.381639 1463.482369 763.076776 1452.774729 744.180942 C 1441.752159 725.285108 1421.596603 713.947607 1399.866393 713.947607 C 1378.136184 714.262538 1357.980627 726.229899 1347.587918 745.125734 L 1083.676099 1207.128883 L 863.224698 766.541013 L 1086.825404 493.496206 C 1101.942072 475.230233 1105.406308 449.720857 1095.013599 428.305578 C 1084.62089 406.890299 1062.57575 393.348285 1038.641027 393.978146 C 1021.004915 394.608007 1004.313594 403.111132 993.291024 416.968077 L 740.401775 725.914969 L 740.401775 455.074677 C 740.716706 438.698287 734.103164 422.951758 722.765663 411.614258 C 711.113232 399.961827 695.366703 393.663215 678.990313 393.978146 Z M 678.990313 393.978146 " transform="matrix(0.0124035,0,0,0.0124035,0,0)"/>
<path style=" stroke:none;fill-rule:nonzero;fill:rgb(100%,100%,100%);fill-opacity:0.392157;" d="M 3.339844 2.199219 C 2.726562 2.199219 2.234375 2.695312 2.234375 3.304688 L 2.234375 3.527344 C 2.234375 2.914062 2.726562 2.421875 3.339844 2.421875 L 20.476562 2.421875 C 21.089844 2.421875 21.582031 2.914062 21.582031 3.527344 L 21.582031 3.304688 C 21.582031 2.695312 21.089844 2.199219 20.476562 2.199219 Z M 3.339844 2.199219 "/>
<path style=" stroke:none;fill-rule:nonzero;fill:rgb(0%,0%,0%);fill-opacity:0.235294;" d="M 3.339844 21.027344 C 2.726562 21.027344 2.234375 20.53125 2.234375 19.917969 L 2.234375 19.609375 C 2.234375 20.222656 2.726562 20.714844 3.339844 20.714844 L 20.476562 20.714844 C 21.089844 20.714844 21.582031 20.222656 21.582031 19.609375 L 21.582031 19.917969 C 21.582031 20.53125 21.089844 21.027344 20.476562 21.027344 Z M 3.339844 21.027344 "/>
<path style="fill:none;stroke-width:3;stroke-linecap:round;stroke-linejoin:round;stroke:rgb(12.941177%,12.941177%,12.941177%);stroke-opacity:1;stroke-miterlimit:4;" d="M 68.826761 -168.671091 L 439.208058 -168.671091 C 450.87361 -168.671091 460.372703 -159.171998 460.372703 -147.506445 L 460.372703 212.292529 C 460.372703 224.041407 450.87361 233.5405 439.208058 233.5405 L 68.826761 233.5405 C 57.077883 233.5405 47.662115 224.041407 47.662115 212.292529 L 47.662115 -147.506445 C 47.662115 -159.171998 57.077883 -168.671091 68.826761 -168.671091 Z M 68.826761 -168.671091 " transform="matrix(0.0468795,0,0,0.0468795,0,10.079087)"/>
</g>
</svg>
